X:1
T:Title
%%score { ( 1 2 3 ) | ( 4 5 ) }
L:1/8
Q:1/4=110
M:4/4
K:F
V:1 treble nm="Grand Piano"
V:2 treble 
V:3 treble 
V:4 bass 
V:5 bass 
V:1
 z .A3 z4 | A8 | z .A3 z4 | GF E6 | z .G3 z4 | G8 | .E2 z G AGFE | FE D6 | z .A3 z4 | A8 | %10
 z .A3 z4 | GF E6 | z .G3 z4 | G8 | .E2 z G AGFE | FEDE F2 FF | F2 FG FEED | FE E4 EE | %18
 E2 FE EDD^C | EDDE F2 FF | F2 FG FEED | FE E4 EE | E2 FE EDD^C | z2 D6 |] %24
V:2
 .D2 z B A2 GF | x8 | .D2 z B A2 GF | x8 | .E2 z A G2 FE | x8 | z .F3 z4 | x8 | .D2 z B A2 GF | %9
 x8 | .D2 z B A2 GF | x8 | .E2 z A G2 FE | x8 | z .F3 z4 | x8 | x8 | x8 | x8 | x8 | x8 | x8 | x8 | %23
 ED z2 A,4 |] %24
V:3
 z2 A,2 z4 | x8 | z2 A,2 z4 | x8 | z2 A,2 z4 | x8 | z2 A,2 z4 | x8 | z2 A,2 z4 | x8 | z2 A,2 z4 | %11
 x8 | z2 A,2 z4 | x8 | z2 A,2 z4 | x8 | x8 | x8 | x8 | x8 | x8 | x8 | x8 | x8 |] %24
V:4
 F,2 z2 F,2 A,2 | D,2 A,2 F,2 D,2 | D,2 z2 F,2 A,2 | ^C,2 A,2 G,2 A,2 | ^C,2 z2 G,2 A,2 | %5
 ^C,2 A,2 G,2 E,2 | ^C,2 z2 G,2 A,2 | D,F, [D,F,A,]6 | F,2 z2 F,2 A,2 | D,2 A,2 F,2 D,2 | %10
 D,2 z2 F,2 A,2 | ^C,2 A,2 G,2 A,2 | ^C,2 z2 G,2 A,2 | ^C,2 A,2 G,2 E,2 | ^C,2 z2 G,2 A,2 | %15
 D,2 [F,A,]4 [F,A,]2 | D,2 [F,A,]4 [F,A,]2 | ^C,2 [G,A,]4 [G,A,]2 | ^C,2 [G,A,]4 [G,A,]2 | %19
 D,2 [F,A,]4 [F,A,]2 | D,2 [F,A,]4 [F,A,]2 | ^C,2 [G,A,]4 [G,A,]2 | ^C,2 [G,A,]4 [G,A,]2 | %23
 z2 F,6 |] %24
V:5
 x8 | x8 | x8 | x8 | x8 | x8 | x8 | x8 | x8 | x8 | x8 | x8 | x8 | x8 | x8 | x8 | x8 | x8 | x8 | %19
 x8 | x8 | x8 | x8 | D,8 |] %24

